img/toolbar/settings.svg

<svg height="24" width="24" xmlns="http://www.w3.org/2000/svg" xmlns:xlink="http://www.w3.org/1999/xlink">
  <linearGradient id="a" gradientUnits="userSpaceOnUse" x1="-4.546595" x2="22.546595" y1="13" y2="13">
    <stop offset="0" stop-color="#717f09"/>
    <stop offset="1" stop-color="#95786d"/>
  </linearGradient>
  <linearGradient id="b" gradientUnits="userSpaceOnUse" x1="-4.398955" x2="22.398954" y1="13" y2="13">
    <stop offset="0" stop-color="#86c57f"/>
    <stop offset="1" stop-color="#b2dd7d"/>
  </linearGradient>
  <g stroke-linecap="round">
    <path d="m17 24c-2.189807 1.592588-2.478747-2.784322-5.053514-1.94637-2.5747676.837953-.232297 4.546546-2.9399878 4.547839-2.7076908.001294-.3687649-3.709535-2.9443316-4.545027-2.5755668-.835492-2.8603243 3.541692-5.0516526 1.951197-2.1913282-1.590494 1.8820732-3.217831.2894859-5.407639-1.59258728-2.189807-4.3958051 1.184033-5.2337579-1.390735-.8379528-2.574767 3.41402323-1.497025 3.41272961-4.204716-.00129361-2.707691-4.25223791-1.625887-3.41674571-4.2014541.8354921-2.5755667 3.64193245.7955933 5.2324266-1.3957349 1.5904942-2.1913283-2.4844603-3.814773-.29465276-5.4073604 2.18980756-1.59258725 2.47874726 2.7843227 5.05351456 1.94637 2.5747673-.8379528.2322967-4.54654536 2.9399875-4.54783899 2.7076912-.00129364.3687649 3.70953549 2.9443312 4.54502769 2.575567.8354922 2.860325-3.54169191 5.051653-1.9511977 2.191328 1.5904941-1.882073 3.2178318-.289486 5.4076393s4.395805-1.1840325 5.233758 1.3907348-3.414023 1.4970253-3.41273 4.2047163c.0013 2.707691 4.252238 1.625887 3.416746 4.201454s-3.641932-.795593-5.232427 1.395735c-1.590494 2.191328 2.484461 3.814773.294653 5.40736z" fill="url(#b)" stroke="url(#a)" stroke-width="1.271237" transform="matrix(.73810314 -.2352766 .22637627 .76620004 2.413963 4.157107)"/>
    <path d="m20 12a8 9 0 1 1 -16 0 8 9 0 1 1 16 0z" fill="#8bb666" stroke="#abd9ad" stroke-width="1.046364" transform="matrix(.69287596 -.21263291 .18900698 .61588979 1.417187 7.161135)"/>
    <path d="m20 12a8 9 0 1 1 -16 0 8 9 0 1 1 16 0z" fill="#fff" stroke="#5b6900" stroke-width="4.260013" transform="matrix(.30943165 -.09495978 .08440872 .27505033 7.273698 9.839131)"/>
  </g>
</svg>

<?xml version="1.0" encoding="UTF-8" standalone="no"?>
<!-- Created with Inkscape (http://www.inkscape.org/) -->

<svg
   xmlns:dc="http://purl.org/dc/elements/1.1/"
   xmlns:cc="http://creativecommons.org/ns#"
   xmlns:rdf="http://www.w3.org/1999/02/22-rdf-syntax-ns#"
   xmlns:svg="http://www.w3.org/2000/svg"
   xmlns="http://www.w3.org/2000/svg"
   xmlns:xlink="http://www.w3.org/1999/xlink"
   xmlns:sodipodi="http://sodipodi.sourceforge.net/DTD/sodipodi-0.dtd"
   xmlns:inkscape="http://www.inkscape.org/namespaces/inkscape"
   width="24"
   height="24"
   id="svg2428"
   sodipodi:version="0.32"
   inkscape:version="0.48.2 r9819"
   sodipodi:docname="gear_16.svg"
   inkscape:output_extension="org.inkscape.output.svg.inkscape"
   inkscape:export-filename="D:\user documents\_kolyan\rezonator2\img\gear_16.png"
   inkscape:export-xdpi="90"
   inkscape:export-ydpi="90"
   version="1.1">
  <defs
     id="defs2430">
    <linearGradient
       id="linearGradient3899">
      <stop
         id="stop3901"
         offset="0"
         style="stop-color:#717f09;stop-opacity:1;" />
      <stop
         id="stop3903"
         offset="1"
         style="stop-color:#95786d;stop-opacity:1;" />
    </linearGradient>
    <linearGradient
       inkscape:collect="always"
       xlink:href="#linearGradient3899"
       id="linearGradient4000"
       gradientUnits="userSpaceOnUse"
       x1="-4.5465946"
       y1="13"
       x2="22.546595"
       y2="13" />
    <linearGradient
       id="linearGradient3905">
      <stop
         id="stop3907"
         offset="0"
         style="stop-color:#86c57f;stop-opacity:1;" />
      <stop
         id="stop3909"
         offset="1"
         style="stop-color:#b2dd7d;stop-opacity:1;" />
    </linearGradient>
    <linearGradient
       inkscape:collect="always"
       xlink:href="#linearGradient3905"
       id="linearGradient3998"
       gradientUnits="userSpaceOnUse"
       x1="-4.3989553"
       y1="13"
       x2="22.398954"
       y2="13" />
    <inkscape:perspective
       sodipodi:type="inkscape:persp3d"
       inkscape:vp_x="0 : 8 : 1"
       inkscape:vp_y="0 : 1000 : 0"
       inkscape:vp_z="16 : 8 : 1"
       inkscape:persp3d-origin="8 : 5.3333333 : 1"
       id="perspective2436" />
    <linearGradient
       inkscape:collect="always"
       xlink:href="#linearGradient3905"
       id="linearGradient2453"
       gradientUnits="userSpaceOnUse"
       x1="-4.3989553"
       y1="13"
       x2="22.398954"
       y2="13" />
    <linearGradient
       inkscape:collect="always"
       xlink:href="#linearGradient3899"
       id="linearGradient2455"
       gradientUnits="userSpaceOnUse"
       x1="-4.5465946"
       y1="13"
       x2="22.546595"
       y2="13" />
    <linearGradient
       inkscape:collect="always"
       xlink:href="#linearGradient3905"
       id="linearGradient2459"
       gradientUnits="userSpaceOnUse"
       x1="-4.3989553"
       y1="13"
       x2="22.398954"
       y2="13" />
    <linearGradient
       inkscape:collect="always"
       xlink:href="#linearGradient3899"
       id="linearGradient2461"
       gradientUnits="userSpaceOnUse"
       x1="-4.5465946"
       y1="13"
       x2="22.546595"
       y2="13" />
    <linearGradient
       inkscape:collect="always"
       xlink:href="#linearGradient3905"
       id="linearGradient2465"
       gradientUnits="userSpaceOnUse"
       x1="-4.3989553"
       y1="13"
       x2="22.398954"
       y2="13" />
    <linearGradient
       inkscape:collect="always"
       xlink:href="#linearGradient3899"
       id="linearGradient2467"
       gradientUnits="userSpaceOnUse"
       x1="-4.5465946"
       y1="13"
       x2="22.546595"
       y2="13" />
    <linearGradient
       inkscape:collect="always"
       xlink:href="#linearGradient3905"
       id="linearGradient2471"
       gradientUnits="userSpaceOnUse"
       x1="-4.3989553"
       y1="13"
       x2="22.398954"
       y2="13" />
    <linearGradient
       inkscape:collect="always"
       xlink:href="#linearGradient3899"
       id="linearGradient2473"
       gradientUnits="userSpaceOnUse"
       x1="-4.5465946"
       y1="13"
       x2="22.546595"
       y2="13" />
    <linearGradient
       inkscape:collect="always"
       xlink:href="#linearGradient3905"
       id="linearGradient2477"
       gradientUnits="userSpaceOnUse"
       x1="-4.3989553"
       y1="13"
       x2="22.398954"
       y2="13" />
    <linearGradient
       inkscape:collect="always"
       xlink:href="#linearGradient3899"
       id="linearGradient2479"
       gradientUnits="userSpaceOnUse"
       x1="-4.5465946"
       y1="13"
       x2="22.546595"
       y2="13" />
  </defs>
  <sodipodi:namedview
     id="base"
     pagecolor="#ffffff"
     bordercolor="#666666"
     borderopacity="1.0"
     inkscape:pageopacity="0.0"
     inkscape:pageshadow="2"
     inkscape:zoom="16.558084"
     inkscape:cx="11.64626"
     inkscape:cy="12.375973"
     inkscape:current-layer="layer1"
     showgrid="true"
     inkscape:grid-bbox="true"
     inkscape:document-units="px"
     inkscape:window-width="1024"
     inkscape:window-height="719"
     inkscape:window-x="619"
     inkscape:window-y="234"
     inkscape:window-maximized="0">
    <inkscape:grid
       type="xygrid"
       id="grid2438"
       empspacing="5"
       visible="true"
       enabled="true"
       snapvisiblegridlinesonly="true" />
  </sodipodi:namedview>
  <metadata
     id="metadata2433">
    <rdf:RDF>
      <cc:Work
         rdf:about="">
        <dc:format>image/svg+xml</dc:format>
        <dc:type
           rdf:resource="http://purl.org/dc/dcmitype/StillImage" />
        <dc:title></dc:title>
      </cc:Work>
    </rdf:RDF>
  </metadata>
  <g
     id="layer1"
     inkscape:label="Layer 1"
     inkscape:groupmode="layer"
     transform="translate(0,8)">
    <path
       transform="matrix(0.73810314,-0.2352766,0.22637627,0.76620004,2.4139625,-3.8428933)"
       d="M 17,24 C 14.810193,25.592588 14.521253,21.215678 11.946486,22.05363 9.3717184,22.891583 11.714189,26.600176 9.0064982,26.601469 6.2988074,26.602763 8.6377333,22.891934 6.0621666,22.056442 3.4865998,21.22095 3.2018423,25.598134 1.010514,24.007639 -1.1808142,22.417145 2.8925872,20.789808 1.2999999,18.6 -0.29258738,16.410193 -3.0958052,19.784033 -3.933758,17.209265 -4.7717108,14.634498 -0.51973477,15.71224 -0.52102839,13.004549 -0.522322,10.296858 -4.7732663,11.378662 -3.9377741,8.8030949 -3.102282,6.2275282 -0.29584165,9.5986882 1.2946525,7.40736 2.8851467,5.2160317 -1.1898078,3.592587 0.99999974,1.9999996 3.1898073,0.40741235 3.478747,4.7843223 6.0535143,3.9463696 8.6282816,3.1084168 6.285811,-0.60017576 8.9935018,-0.60146939 11.701193,-0.60276303 9.3622667,3.1080661 11.937833,3.9435583 14.5134,4.7790505 14.798158,0.40186639 16.989486,1.9923606 19.180814,3.5828547 15.107413,5.2101924 16.7,7.3999999 c 1.592587,2.1898075 4.395805,-1.1840325 5.233758,1.3907348 0.837953,2.5747673 -3.414023,1.4970253 -3.41273,4.2047163 0.0013,2.707691 4.252238,1.625887 3.416746,4.201454 -0.835492,2.575567 -3.641932,-0.795593 -5.232427,1.395735 C 15.114853,20.783968 19.189808,22.407413 17,24 z"
       inkscape:randomized="0"
       inkscape:rounded="0.5"
       inkscape:flatsided="false"
       sodipodi:arg2="1.2561593"
       sodipodi:arg1="0.94200004"
       sodipodi:r2="9.5210295"
       sodipodi:r1="13.601471"
       sodipodi:cy="13"
       sodipodi:cx="9"
       sodipodi:sides="10"
       id="path3913"
       style="fill:url(#linearGradient3998);fill-opacity:1;fill-rule:nonzero;stroke:url(#linearGradient4000);stroke-width:1.27123651;stroke-linecap:round;stroke-linejoin:miter;stroke-miterlimit:4;stroke-opacity:1;stroke-dasharray:none;stroke-dashoffset:0"
       sodipodi:type="star" />
    <path
       sodipodi:type="arc"
       style="fill:#8bb666;fill-opacity:1;fill-rule:nonzero;stroke:#abd9ad;stroke-width:1.04636419;stroke-linecap:round;stroke-linejoin:miter;stroke-miterlimit:4;stroke-opacity:1;stroke-dasharray:none;stroke-dashoffset:0"
       id="path3915"
       sodipodi:cx="12"
       sodipodi:cy="12"
       sodipodi:rx="8"
       sodipodi:ry="9"
       d="M 20,12 A 8,9 0 1 1 4,12 8,9 0 1 1 20,12 z"
       transform="matrix(0.69287596,-0.21263291,0.18900698,0.61588979,1.4171869,-0.83886459)" />
    <path
       transform="matrix(0.30943165,-0.09495978,0.08440872,0.27505033,7.2736979,1.8391311)"
       d="M 20,12 A 8,9 0 1 1 4,12 8,9 0 1 1 20,12 z"
       sodipodi:ry="9"
       sodipodi:rx="8"
       sodipodi:cy="12"
       sodipodi:cx="12"
       id="path3917"
       style="fill:#ffffff;fill-opacity:1;fill-rule:nonzero;stroke:#5b6900;stroke-width:4.26001263;stroke-linecap:round;stroke-linejoin:miter;stroke-miterlimit:4;stroke-opacity:1;stroke-dasharray:none;stroke-dashoffset:0"
       sodipodi:type="arc" />
  </g>
</svg>
